X: 34
T: Helas mon dueil a ce cop sui je mort
N: Derived from Duf3077-Helas_mon_dueil_a_ce_cop_sui_je_mort.krn
C: Guillaume Du Fay
%%abc-version 2.0
%%abcx-abcm2ps-target-version 5.9.1 (29 Sep 2008)
%%abc-creator hum2abc beta
%%abcx-conversion-date 2019/02/16 20:31:47
%%abc-edited-by Jesse Rodin
%%abc-edited-by Alejandro Planchart
%%abcx-initial-encoding-date 2013///
%%humdrum-veritas 3489810583
%%humdrum-veritas-data 1680515339
%%linebreak <none>
%%barnumbers 0
L: 1/4
M: 4/2
Q: 1/2=120
V: 1 clef=treble
V: 2 clef=treble-8
V: 3 clef=treble-8
K: F
[V:1] A8 | 
[V:2] D8- | 
[V:3] A4d4- | 
[V:1] ^F8 | 
[V:2] D8 | 
[V:3] d2c2A4 | 
[V:1] B8 | 
[V:2] d6e2 | 
[V:3] G4G4 | 
[V:1] A8 | 
[V:2] f8 | 
[V:3] F4D4 | 
[V:1] c4c4 | 
[V:2] e8 | 
[V:3] A4A4 | 
[V:1] B2A2A4- | 
[V:2] f4F4 | 
[V:3] d4c4 | 
[V:1] A2G4F2 | 
[V:2] z2G6 | 
[V:3] B8 | 
[V:1] A8 | 
[V:2] D8- | 
[V:3] A8- | 
[V:1] z4F4 | 
[V:2] D4z2D2 | 
[V:3] A8 | 
[V:1] G4G4 | 
[V:2] E2F2G4 | 
[V:3] z4B4 | 
[V:1] A4A4 | 
[V:2] D8 | 
[V:3] A4F4 | 
[V:1] G2F2D4 | 
[V:2] z4G4 | 
[V:3] B4B4 | 
[V:1] C2D2F4 | 
[V:2] A2F2D4 | 
[V:3] A6F2 | 
[V:1] E2D2D4- | 
[V:2] B4A4 | 
[V:3] G4F4 | 
[V:1] D2^C2C2=B,2 | 
[V:2] G2G4F2 | 
[V:3] E8 | 
[V:1] D4z4 | 
[V:2] A8 | 
[V:3] D8 | 
[V:1] A8 | 
[V:2] F4D4 | 
[V:3] z4F4 | 
[V:1] =B4B4 | 
[V:2] d8 | 
[V:3] G4G4 | 
[V:1] c4c4 | 
[V:2] z4c4 | 
[V:3] A8 | 
[V:1] =B4B4 | 
[V:2] d4G4 | 
[V:3] G4d4 | 
[V:1] A8 | 
[V:2] D8 | 
[V:3] d2e2f4 | 
[V:1] G2A2B4 | 
[V:2] E2F2G4 | 
[V:3] e4d2d2- | 
[V:1] A2A3GF2 | 
[V:2] F4D4 | 
[V:3] d2A2d4 | 
[V:1] E8 | 
[V:2] A8 | 
[V:3] ^c8- | 
[V:1] z4E4 | 
[V:2] A2G2E4 | 
[V:3] c4z2^c2 | 
[V:1] F4F2E2 | 
[V:2] D4B4 | 
[V:3] d4d4 | 
[V:1] C4C2C2 | 
[V:2] A8 | 
[V:3] e6e2 | 
[V:1] D6D2 | 
[V:2] D8- | 
[V:3] f2f2f4 | 
[V:1] D4A,2C2 | 
[V:2] D4z4 | 
[V:3] f4e4 | 
[V:1] D2F2E4 | 
[V:2] D4A4 | 
[V:3] d2d4^c2 | 
[V:1] D8 | 
[V:2] (3B4G4B4 | 
[V:3] d4z4 | 
[V:1] z8 | 
[V:2] A8 | 
[V:3] D2E2F4 | 
[V:1] D2E2F4 | 
[V:2] z4D4 | 
[V:3] G4A4 | 
[V:1] G4A4 | 
[V:2] d2e2f4 | 
[V:3] B3AF4 | 
[V:1] B3AF4 | 
[V:2] d4D4 | 
[V:3] G4A4 | 
[V:1] G4A4 | 
[V:2] z2G2F4 | 
[V:3] B4c3B | 
[V:1] B4c3B | 
[V:2] _E2D2z2C2- | 
[V:3] G2d2c2_e2- | 
[V:1] G2F2B2AA- | 
[V:2] C2D4F2- | 
[V:3] e2d4c2- | 
[V:1] AGG3^FFE | 
[V:2] F2G2D4 | 
[V:3] c2B2A4 | 
[V:1] G8 ||  
[V:2] d8 ||  
[V:3] G8 ||  
[V:1]  [K:F] 
[V:2]  [K:F] 
[V:3]  [K:F] 
[V:1] D4D2E2 [I:setbarnb 42]| 
[V:2] G8 | 
[V:3] =B6c2 | 
[V:1] ^F6E2 | 
[V:2] D8 | 
[V:3] d4d4 | 
[V:1] G8 | 
[V:2] (3_E4C4_E4 | 
[V:3] G4G4 | 
[V:1] A4=B4 | 
[V:2] D4G4 | 
[V:3] d4d4 | 
[V:1] c4c4- | 
[V:2] A4F4 | 
[V:3] c8 | 
[V:1] c2B2G4 | 
[V:2] C8 | 
[V:3] _e8 | 
[V:1] ^F6G2 | 
[V:2] D8- | 
[V:3] d4d4 | 
[V:1] A4D4 | 
[V:2] D8 | 
[V:3] f6_ed | 
[V:1] z8 | 
[V:2] _E8 | 
[V:3] c6B2 | 
[V:1] F3GA2=B2 | 
[V:2] D8 | 
[V:3] d8 | 
[V:1] c3=B/A/G3F | 
[V:2] z4d4 | 
[V:3] A4B4 | 
[V:1] A4F4 | 
[V:2] e2c6 | 
[V:3] A8 | 
[V:1] B4B4 | 
[V:2] d8 | 
[V:3] G8 | 
[V:1] A4G3F | 
[V:2] z2d2G3B- | 
[V:3] D4E2G2- | 
[V:1] EDD4^C2 | 
[V:2] B2A3G3 | 
[V:3] G2F2E4 | 
[V:1] D2z2D3E | 
[V:2] A6=B2 | 
[V:3] D3EF2G2 | 
[V:1] F2G2A2G2 | 
[V:2] c2d2e4 | 
[V:3] A2G2c3B | 
[V:1] c3BA2G2 | 
[V:2] c2d2D2G2- | 
[V:3] A2G2d2_e2 | 
[V:1] (3B3AG2^F3E | 
[V:2] G4D4 | 
[V:3] (3d3cB2A4 | 
[V:1] G8 ||  
[V:2] d8 ||  
[V:3] G8 ||  



